findly-builder/apps/searchassist/src/assets/icons/resultTemplate/skelton-medium.svg

<svg width="55" height="48" viewBox="0 0 55 48" fill="none" xmlns="http://www.w3.org/2000/svg">
<path fill-rule="evenodd" clip-rule="evenodd" d="M6.53125 0C3.38892 0 0.8125 2.70312 0.8125 6V42C0.8125 45.2969 3.38892 48 6.53125 48H48.4688C51.6111 48 54.1875 45.2969 54.1875 42V6C54.1875 2.70312 51.6111 0 48.4688 0H6.53125ZM6.53125 4H48.4688C49.541 4 50.375 4.875 50.375 6V35.0625L37.3996 20.6901C37.1968 20.4655 36.8424 20.4711 36.6468 20.7022L29.5701 29.0625L18.4712 16.7834C18.2683 16.559 17.9141 16.5647 17.7186 16.7957L4.625 32.2656V6C4.625 4.875 5.45898 4 6.53125 4ZM38.9375 8C36.8376 8 35.125 9.79688 35.125 12C35.125 14.2031 36.8376 16 38.9375 16C41.0374 16 42.75 14.2031 42.75 12C42.75 9.79688 41.0374 8 38.9375 8ZM18.1772 22.2656L37.8206 44H6.53125C5.45898 44 4.625 43.125 4.625 42V38.2969L18.1772 22.2656ZM37.0908 26.1875L50.375 40.875V42C50.375 43.125 49.541 44 48.4688 44H43.0627L32.2061 31.9688L37.0908 26.1875Z" fill="#BDC1C6"/>
</svg>

<svg width="55" height="48" fill="none" xmlns="http://www.w3.org/2000/svg"><path fill-rule="evenodd" clip-rule="evenodd" d="M6.531 0C3.39 0 .813 2.703.813 6v36c0 3.297 2.576 6 5.718 6H48.47c3.142 0 5.718-2.703 5.718-6V6c0-3.297-2.576-6-5.718-6H6.53Zm0 4H48.47c1.072 0 1.906.875 1.906 2v29.063L37.4 20.69a.5.5 0 0 0-.753.012l-7.077 8.36-11.099-12.279a.5.5 0 0 0-.752.013L4.625 32.266V6c0-1.125.834-2 1.906-2Zm32.407 4c-2.1 0-3.813 1.797-3.813 4 0 2.203 1.713 4 3.813 4s3.812-1.797 3.812-4c0-2.203-1.713-4-3.813-4Zm-20.76 14.266L37.82 44H6.53c-1.072 0-1.906-.875-1.906-2v-3.703l13.552-16.031Zm18.913 3.922 13.284 14.687V42c0 1.125-.834 2-1.906 2h-5.406L32.206 31.969l4.885-5.782Z" fill="#BDC1C6"/></svg>
